X: 1436
T: An Ugly Customer
R: strathspey
M: 4/4
K: Amajor
E>Ac>A e>Ac>A|E>Ac>e d<BB>c|E2 (3cBA e2 (3cBA|a>fe>d c<AB>G|
E>A (3cBA e>A c2|E>A (3cde d<BB>g|a>ga>e f>ae>c|d>Be>d c<A A2||
a>ga>e f>ef>g|a>fe>c d<BB>e|a2 a>e f2 (3edc|d>Be>d c<AA>e|
a>g a2 (3fgf e>c|d>Bc>A B<F F2|E>FE>D E>FA>B|c>dB>d c<A A2||

